svgs/sharp-solid/circle-e.svg

<svg xmlns="http://www.w3.org/2000/svg" viewBox="0 0 512 512"><!--! Font Awesome Pro 6.6.0 by @fontawesome - https://fontawesome.com License - https://fontawesome.com/license (Commercial License) Copyright 2024 Fonticons, Inc. --><path d="M256 512A256 256 0 1 0 256 0a256 256 0 1 0 0 512zM184 128l144 0 24 0 0 48-24 0-120 0 0 56 88 0 24 0 0 48-24 0-88 0 0 56 120 0 24 0 0 48-24 0-144 0-24 0 0-24 0-104 0-104 0-24 24 0z"/></svg>

<svg xmlns="http://www.w3.org/2000/svg" viewBox="0 0 512 512"><!--! Font Awesome Pro 6.4.0 by @fontawesome - https://fontawesome.com License - https://fontawesome.com/license (Commercial License) Copyright 2023 Fonticons, Inc. --><path d="M256 512A256 256 0 1 0 256 0a256 256 0 1 0 0 512zM184 128H328h24v48H328 208v56h88 24v48H296 208v56H328h24v48H328 184 160V360 256 152 128h24z"/></svg>
